X:1
T: Yourself along with me
C:
R:Jig
Q:180
K:Am
M:6/8
L:1/16
|:B2|c4A2 B2^G2E2|c4A2 B2^G2E2|G4G2 G4G2|G4G2 G4G2|
c4A2 B2^G2E2|c4A2 B2^G2E2|A4A2 A4c2|A4A2 A4:|
|:B2|c2d2e2 d2e2f2|e2d2c2 B2c2A2|G4g2 g2d2B2|G4g2 g2d2B2|
c2d2e2 d2e2f2|e2d2c2 B2c2A2|A4a2 a2e2c2|A4A2 A4:|
